X: 42954
T: Willie Bucach Macleod Of Stornoway
R: reel
M: 4/4
K: Amajor
|:A2 ec eccB|Acec e~f3|A2 ec eccB|1 AcBA FEEF:|2 AcBA F~E3||
|:f2ef a2 c2-|cfec e2 ce|f2 ef a2 A2-|1 AcBA F~E3:|2 AcBA FEEF||

